X:1
T:Three Men of Eddystone
M:4/4
L:1/4
K:C
 E A G E/2E/2|E/2-D/2 C E2| E A G3/2 E/2| E/2D/2 C D3/2 C/2| C A, G, A,|\
 C/2C/2 D E3/2 E/2| E A/2A/2 G/2G/2 E/2E/2| D C A, C| C C D D| E E F E|\
 E AG/2-E/2D/2-C/2| A, G, A,E/2-D/2| C A, G, A,| C C C C/2C/2| E G G E/2G/2|\
 A A G E| E G G E| D C DE/2-D/2| C A, G, A,/2 G,/2| C C C|
